assets/icons/rotate.svg

<svg xmlns="http://www.w3.org/2000/svg" viewBox="0 0 26 26" role="presentation" aria-hidden="true"><path d="M21.9642 12.1013L18.9391 15.1703C18.7637 15.3456 18.5445 15.4333 18.3034 15.4333C18.0622 15.4333 17.843 15.3456 17.6677 15.1703L14.6425 12.1013C14.3137 11.7505 14.3137 11.2025 14.6425 10.8518C14.9933 10.523 15.5413 10.523 15.892 10.8518L17.58 12.5616C17.3608 9.38304 14.7521 6.8621 11.5736 6.8621C8.24152 6.8621 5.5452 9.62418 5.5452 13.0001C5.5452 16.3759 8.24152 19.138 11.5736 19.138C12.8011 19.138 13.9849 18.7653 14.9713 18.0639C15.3659 17.7789 15.914 17.8885 16.1989 18.2831C16.4839 18.6777 16.3743 19.2257 15.9797 19.5107C14.6864 20.4094 13.1519 20.8917 11.5736 20.8917C7.27698 20.8917 3.7915 17.3624 3.7915 13.0001C3.7915 8.63772 7.27698 5.1084 11.5736 5.1084C15.6071 5.1084 18.9391 8.24314 19.3118 12.2547L20.6928 10.8518C21.0435 10.501 21.5916 10.501 21.9423 10.8518C22.2931 11.2025 22.2931 11.7505 21.9642 12.1013Z" fill="currentColor"/></svg>

<svg xmlns="http://www.w3.org/2000/svg" aria-hidden="true" viewBox="0 0 26 26"><path fill="currentColor" d="m21.964 12.101-3.025 3.07a.88.88 0 0 1-.636.262.88.88 0 0 1-.635-.263l-3.025-3.069a.915.915 0 0 1 0-1.25.915.915 0 0 1 1.249 0l1.688 1.71c-.22-3.178-2.828-5.699-6.006-5.699-3.332 0-6.029 2.762-6.029 6.138s2.697 6.138 6.029 6.138a5.85 5.85 0 0 0 3.397-1.074c.395-.285.943-.175 1.228.22.285.394.175.942-.22 1.227a7.7 7.7 0 0 1-4.405 1.38c-4.297 0-7.782-3.529-7.782-7.89 0-4.363 3.485-7.893 7.782-7.893 4.033 0 7.365 3.135 7.738 7.147l1.38-1.403a.873.873 0 0 1 1.25 0c.351.35.351.899.022 1.25"/></svg>
